X: 1719
T: CAPTAIN O'CLERY'S FANCY
M:C|
L:1/8
B:O'NEILL'S 1719
N:"collected by J. O'Neill"
Z:Transcribed by A.LEE WORMAN
K:A
E2|A>Bc>d e>ca>f|(3efd (3cdB A2 (~BA)|G>AB>c d>cf>e|dcBA GBEG|
A>Bc>d e>ca>f|(3efd (3cdB Aceg|agfe gfe^d|eBgf e2:|
|:(f>g)|a>ga>f e>ca>f|(3efd (3cdB A2 (~BA)|G>AB>c d>cf>e|dcBA GBEg|
a>ga>f e>ca>f|(3efd (3cdB Aceg|agfe gfe^d|eBgf e2:|


